X:123
T:Sonata for Two Violins Op.2 No.2 - Corrente
C:Vivaldi, A.
M:3/4
L:1/8
Q:1/4=100
K:G
|:D|G2 AB cd|e2 dB G2|A2 Bc de|f2 ed A2|
B2 cd ef|g2 fe d2|cBAG FED|G4:|

